assets/img/fail.svg

<?xml version="1.0" encoding="UTF-8" standalone="no"?>
<!-- Created with Inkscape (http://www.inkscape.org/) -->
<svg
   xmlns:dc="http://purl.org/dc/elements/1.1/"
   xmlns:cc="http://web.resource.org/cc/"
   xmlns:rdf="http://www.w3.org/1999/02/22-rdf-syntax-ns#"
   xmlns:svg="http://www.w3.org/2000/svg"
   xmlns="http://www.w3.org/2000/svg"
   xmlns:sodipodi="http://sodipodi.sourceforge.net/DTD/sodipodi-0.dtd"
   xmlns:inkscape="http://www.inkscape.org/namespaces/inkscape"
   width="64"
   height="64"
   id="svg2"
   sodipodi:version="0.32"
   inkscape:version="0.44"
   version="1.0"
   sodipodi:docbase="C:\Documents and Settings\Kris\My Documents\My Pictures\Wikipedia"
   sodipodi:docname="Empty Star.svg">
  <defs
     id="defs4" />
  <sodipodi:namedview
     id="base"
     pagecolor="#ffffff"
     bordercolor="#666666"
     borderopacity="1.0"
     gridtolerance="10000"
     guidetolerance="10"
     objecttolerance="10"
     inkscape:pageopacity="0.0"
     inkscape:pageshadow="2"
     inkscape:zoom="3.4678899"
     inkscape:cx="49.5"
     inkscape:cy="21.5"
     inkscape:document-units="px"
     inkscape:current-layer="layer1"
     width="64px"
     height="64px"
     showgrid="true"
     gridspacingx="2px"
     gridspacingy="2px"
     gridempspacing="4"
     inkscape:window-width="847"
     inkscape:window-height="582"
     inkscape:window-x="133"
     inkscape:window-y="72" />
  <metadata
     id="metadata7">
    <rdf:RDF>
      <cc:Work
         rdf:about="">
        <dc:format>image/svg+xml</dc:format>
        <dc:type
           rdf:resource="http://purl.org/dc/dcmitype/StillImage" />
      </cc:Work>
    </rdf:RDF>
  </metadata>
  <g
     inkscape:label="Layer 1"
     inkscape:groupmode="layer"
     id="layer1">
    <path
       sodipodi:type="star"
       style="fill:white;fill-opacity:1;stroke:#7f7f7f;stroke-width:2;stroke-miterlimit:4;stroke-dasharray:none;stroke-opacity:1"
       id="path3651"
       sodipodi:sides="5"
       sodipodi:cx="31.934996"
       sodipodi:cy="32.065002"
       sodipodi:r1="24.493324"
       sodipodi:r2="10.409663"
       sodipodi:arg1="0.9442689"
       sodipodi:arg2="1.5725874"
       inkscape:flatsided="false"
       inkscape:rounded="2.4286129e-017"
       inkscape:randomized="0"
       d="M 46.296296,51.906272 L 31.916351,42.474649 L 17.502712,51.8547 L 22.029072,35.264028 L 8.654054,24.454438 L 25.831443,23.632463 L 31.978866,7.5717174 L 38.068716,23.65438 L 55.243051,24.537884 L 41.829396,35.299492 L 46.296296,51.906272 z "
       transform="matrix(0.986858,0,0,1.03704,0.471316,1.159472)" />
  </g>
</svg>

<svg xmlns="http://www.w3.org/2000/svg" width="64" height="64" version="1.0"><path d="M46.296 51.906l-14.38-9.431-14.413 9.38 4.526-16.591-13.375-10.81 17.177-.822 6.148-16.06 6.09 16.082 17.174.884L41.83 35.299l4.467 16.607z" transform="matrix(.98686 0 0 1.03704 .471 1.16)" fill="#fff" stroke="#7f7f7f" stroke-width="2"/></svg>
